src/assets/icons/upload.svg

<svg widh="100%" height="100%" viewBox="0 0 24 24" fill="current"
  xmlns="http://www.w3.org/2000/svg">
  <path fill-rule="evenodd" clip-rule="evenodd" d="M3 14C3.55228 14 4 14.4477 4 15V19C4 19.2652 4.10534 19.5195 4.29292 19.7071L4.29292 19.7071C4.48044 19.8946 4.73477 20 5 20H19C19.2652 20 19.5195 19.8947 19.7071 19.7071C19.8947 19.5195 20 19.2652 20 19V15C20 14.4477 20.4477 14 21 14C21.5523 14 22 14.4477 22 15V19C22 19.7956 21.6839 20.5587 21.1213 21.1213C20.5587 21.6839 19.7956 22 19 22H5C4.20437 22 3.44128 21.684 2.87866 21.1213C2.31608 20.5587 2 19.7956 2 19V15C2 14.4477 2.44772 14 3 14Z"/>
  <path fill-rule="evenodd" clip-rule="evenodd" d="M11.2929 2.29289C11.6834 1.90237 12.3166 1.90237 12.7071 2.29289L17.7071 7.29289C18.0976 7.68342 18.0976 8.31658 17.7071 8.70711C17.3166 9.09763 16.6834 9.09763 16.2929 8.70711L12 4.41421L7.70711 8.70711C7.31658 9.09763 6.68342 9.09763 6.29289 8.70711C5.90237 8.31658 5.90237 7.68342 6.29289 7.29289L11.2929 2.29289Z"/>
  <path fill-rule="evenodd" clip-rule="evenodd" d="M12 2C12.5523 2 13 2.44772 13 3V15C13 15.5523 12.5523 16 12 16C11.4477 16 11 15.5523 11 15V3C11 2.44772 11.4477 2 12 2Z"/>
</svg>

<svg xmlns="http://www.w3.org/2000/svg" fill="currentColor" viewBox="0 0 24 24">
  <path fill-rule="evenodd" d="M3 14a1 1 0 0 1 1 1v4a1 1 0 0 0 1 1h14a1 1 0 0 0 1-1v-4a1 1 0 1 1 2 0v4a3 3 0 0 1-3 3H5a3 3 0 0 1-3-3v-4a1 1 0 0 1 1-1ZM11.293 2.293a1 1 0 0 1 1.414 0l5 5a1 1 0 0 1-1.414 1.414L12 4.414 7.707 8.707a1 1 0 0 1-1.414-1.414l5-5Z" clip-rule="evenodd"/>
  <path fill-rule="evenodd" d="M12 2a1 1 0 0 1 1 1v12a1 1 0 1 1-2 0V3a1 1 0 0 1 1-1Z" clip-rule="evenodd"/>
</svg>
